!!!!SEGMENT: pl-kk--kk-i-3--013-003_anonim--missa-agnus-dei.krn
!!!cenid: 15xx:614
!!!COM: Anonim
!!!COM-rismid: pe30004985
!!!CDT:
!!!CNT:
!!!OPR: [Missa]
!!!OTL: Agnus Dei
!!!OMV: 003
!!!PDT:
!!!AGN:
!!!SMS-siglum: PL-Kk
!!!SMS-shelfmark: Kk.I.3
!!!SMS-shelfwork: 013-003 M
!!!SMS-variant:
!!!SMS-altvar:
!!!NIFC-rismid: 1001145493
!!!system-decoration: [(s1,s2,s3)]
!!!AIN: 1 bass 1 tenor 1 vox
!!!key:
**kern	**text	**kern	**text	**kern	**text
*part3	*part3	*part2	*part2	*part1	*part1
*staff3	*staff3	*staff2	*staff2	*staff1	*staff1
*Ibass	*	*Itenor	*	*Ivox	*
*I"Basso	*	*I"Tenore	*	*I"Canto	*
*I'B.	*	*I'T.	*	*I'C.	*
*clefF4	*	*clefC4	*	*clefC3	*
*k[]	*	*k[]	*	*k[]	*
*C:	*	*C:	*	*C:	*
*M2/1	*	*M2/1	*	*M2/1	*
=1-	=1-	=1-	=1-	=1-	=1-
*	*	*	*	*2\right	*
!LO:TX:t=P:problem=w źródle nad pięciolinią adnotacja "A .t.d.s"	!	!	!	!	!
!	!	!	!	!LO:TX:a:t=P:problem=w źródle brak pozostałych głosów do tego fragmentu	!
0ryy	.	0ryy	.	1c	A
.	.	.	.	1c	.
=2-	=2-	=2-	=2-	=2-	=2-
0ryy	.	0ryy	.	1c	.
.	.	.	.	1f	.
=3-	=3-	=3-	=3-	=3-	=3-
0ryy	.	0ryy	.	2g\	.
.	.	.	.	1g	.
.	.	.	.	2f\	.
=4-	=4-	=4-	=4-	=4-	=4-
0ryy	.	0ryy	.	1g	.
.	.	.	.	0e	.
=5-	=5-	=5-	=5-	=5-	=5-
0ryy	.	0ryy	.	.	.
.	.	.	.	0f	.
=6-	=6-	=6-	=6-	=6-	=6-
0ryy	.	0ryy	.	.	.
.	.	.	.	0f	.
=7-	=7-	=7-	=7-	=7-	=7-
0ryy	.	0ryy	.	.	.
*	*	*	*	*custos:c	*
.	.	.	.	0g	.
=8-	=8-	=8-	=8-	=8-	=8-
0ryy	.	0ryy	.	.	.
!	!	!	!	!LO:LB:g=original	!
.	.	.	.	2c/	.
.	.	.	.	2d/	.
=9-	=9-	=9-	=9-	=9-	=9-
0ryy	.	0ryy	.	1e	.
.	.	.	.	2f\	.
.	.	.	.	1f\	.
=10-	=10-	=10-	=10-	=10-	=10-
0ryy	.	0ryy	.	.	.
.	.	.	.	2e\	.
.	.	.	.	1f	.
=11-	=11-	=11-	=11-	=11-	=11-
0ryy	.	0ryy	.	1g	.
.	.	.	.	2f\	.
.	.	.	.	2d/	.
=12-	=12-	=12-	=12-	=12-	=12-
0ryy	.	0ryy	.	2c/	.
.	.	.	.	1d	.
.	.	.	.	2c/	.
=13-	=13-	=13-	=13-	=13-	=13-
0ryy	.	0ryy	.	0d;<l	.
!	!	!	!	!LO:PB:g=original	!
=14-	=14-	=14-	=14-	=14-	=14-
*clefF4	*	*clefC4	*	*	*
*	*	*lig	*	*	*
!	!	!LO:TX:t=P:problem=w źródle adnotacja ".t." przed pierwszą nutą lub oznaczenie klucza C4	!	!	!
!	!	!	!	!LO:TX:t=P:problem=w źródle adnotacja ".t." przed pierwszą nutą lub oznaczenie klucza C3	!
0A	A-	1D	A-	1d	A-
.	.	1F	.	2c/	.
.	.	.	.	2d/	.
*	*	*Xlig	*	*	*
=15-	=15-	=15-	=15-	=15-	=15-
*	*	*lig	*	*lig	*
1G	-gnus	1C	-gnus	1e	-gnus
1F	.	1D	.	1f	.
*	*	*Xlig	*	*Xlig	*
=16-	=16-	=16-	=16-	=16-	=16-
*lig	*	*lig	*	*lig	*
1C	.	1E	.	1g	.
1F	.	1F	.	1c	.
*Xlig	*	*Xlig	*	*Xlig	*
=17-	=17-	=17-	=17-	=17-	=17-
1F	.	1D	.	2d/	.
.	.	.	.	1f	de-
*lig	*	*lig	*	*	*
1G	de-	1C	de-	.	.
.	.	.	.	2e/	-i
=18-	=18-	=18-	=18-	=18-	=18-
1F	.	1D	.	0f	.
*Xlig	*	*Xlig	*	*	*
1F	-i	1D	-i	.	.
=19-	=19-	=19-	=19-	=19-	=19-
*lig	*	*	*	*	*
1C	qvi	1E	qvi	2e/	qui
*	*	*	*	*custos:d	*
.	.	.	.	1e	.
*	*	*lig	*	*	*
1F	.	1F	.	.	.
!	!	!	!	!LO:LB:g=original	!
.	.	.	.	2d/	.
*Xlig	*	*	*	*	*
=20-	=20-	=20-	=20-	=20-	=20-
1E	.	1G	.	1e	.
*	*	*Xlig	*	*lig	*
1E	to-	1G	tol-	1e	tol-
=21-	=21-	=21-	=21-	=21-	=21-
*custos:A	*	*	*	*	*
2AA/	.	1F	.	1a	.
!LO:LB:g=original	!	!	!	!	!
1A	.	.	.	.	.
*	*	*	*	*Xlig	*
.	.	1E	.	2g\	.
2G\	.	.	.	1g\	.
=22-	=22-	=22-	=22-	=22-	=22-
1A	.	1D	.	.	.
.	.	.	.	2f\	.
*lig	*	*lig	*	*	*
1G	.	1E	.	1g	.
=23-	=23-	=23-	=23-	=23-	=23-
*	*	*custos:E	*	*	*
1D	.	1F	.	1f	.
*Xlig	*	*Xlig	*	*	*
!	!	!LO:LB:g=original	!	!	!
2G\	.	1E	.	1g	.
2E/	.	.	.	.	.
=24-	=24-	=24-	=24-	=24-	=24-
*lig	*	*	*	*lig	*
1F	lis	1D	.	1f	-lis
1G	.	1C	-lis	1e	.
*Xlig	*	*	*	*Xlig	*
=25-	=25-	=25-	=25-	=25-	=25-
*lig	*	*	*	*lig	*
1G	Pec-	1E	Pec-	1g	.
*	*	*lig	*	*	*
1D	.	1F	.	1f	.
*Xlig	*	*	*	*Xlig	*
=26-	=26-	=26-	=26-	=26-	=26-
1E	.	1G	.	1e	pec-
*lig	*	*Xlig	*	*	*
*	*	*lig	*	*	*
1E	-ca-	1G	-ca-	1e	-ca-
=27-	=27-	=27-	=27-	=27-	=27-
*	*	*	*	*custos:d	*
1AA	.	1A	.	1e	.
!	!	!	!	!LO:LB:g=original	!
*Xlig	*	*Xlig	*	*lig	*
1BB	-ta	1D	-ta	1d	-ta
=28-	=28-	=28-	=28-	=28-	=28-
*	*	*lig	*	*	*
2C/	.	1E	.	1g	.
2BB/	.	.	.	.	.
*	*	*	*	*Xlig	*
2AA/	.	1F	.	2a\	.
*custos:G	*	*	*	*	*
1A\	.	.	.	2A/	.
*	*	*Xlig	*	*	*
=29-	=29-	=29-	=29-	=29-	=29-
.	.	1E	.	2B/	.
!LO:LB:g=original	!	!	!	!	!
2G\	.	.	.	2c/	.
1F	.	1D	.	1d	.
=30-	=30-	=30-	=30-	=30-	=30-
*lig	*	*	*	*	*
1E	mu(n)-	1C	mu(n)-	2G/	.
.	.	.	.	1g	.
1D	.	1D	.	.	.
.	.	.	.	2f\	.
*Xlig	*	*	*	*	*
=31-	=31-	=31-	=31-	=31-	=31-
*	*	*lig	*	*lig	*
1C	.	1E	.	1g	.
1F	.	1F	.	1c	.
*	*	*Xlig	*	*Xlig	*
=32-	=32-	=32-	=32-	=32-	=32-
*	*	*lig	*	*	*
1G	-di	1E	-di	1g	di
*	*	*custos:D	*	*	*
2A\	.	1D	.	2f\	.
1G\	.	.	.	2g\	.
*	*	*Xlig	*	*	*
!	!	!LO:LB:g=original	!	!	!
=33-	=33-	=33-	=33-	=33-	=33-
*	*	*	*	*custos:a	*
.	.	1D	mi-	2a\	mi-
!	!	!	!	!LO:LB:g=original	!
2F\	mi-	.	.	1a	.
1G	-se-	1E	-se-	.	.
.	.	.	.	2g\	.
=34-	=34-	=34-	=34-	=34-	=34-
2D/	.	1F	-re-	1a	-se-
2F/	.	.	.	.	.
*	*	*lig	*	*lig	*
1E	.	1G	.	1g	.
=35-	=35-	=35-	=35-	=35-	=35-
1AA	.	1A	.	1e	.
*	*	*Xlig	*	*Xlig	*
2BB/	-re-	1G	-re	1B	.
*custos:D	*	*	*	*	*
2C/	.	.	.	.	.
!LO:PB:g=original	!	!	!	!	!
=36-	=36-	=36-	=36-	=36-	=36-
*lig	*	*lig	*	*	*
1D	re	1F	.	2A/	.
.	.	.	.	2B/	-re-
1AA	.	1E	.	1c	-re
*Xlig	*	*Xlig	*	*	*
=37-	=37-	=37-	=37-	=37-	=37-
*lig	*	*lig	*	*	*
1D	.	1F	.	2A/	.
.	.	.	.	2a\	.
1E	.	1G	.	2g\	.
.	.	.	.	2e/	.
*Xlig	*	*Xlig	*	*	*
=38-	=38-	=38-	=38-	=38-	=38-
1D	.	1F	.	2f\	no-
.	.	.	.	2a\	.
*	*	*lig	*	*lig	*
0G	No-	1E	.	1g	.
=39-	=39-	=39-	=39-	=39-	=39-
*	*	*	*	*custos:g	*
.	.	1C	.	1e	.
*	*	*Xlig	*	*Xlig	*
!	!	!	!	!LO:LB:g=original	!
*	*	*	*	*lig	*
1F	.	1D	no-	1f	.
=40-	=40-	=40-	=40-	=40-	=40-
*	*	*lig	*	*	*
2C/	.	1E	.	1g	.
2E/	.	.	.	.	.
*	*	*	*	*Xlig	*
1D	.	1F	.	2f\	.
.	.	.	.	2d/	.
*	*	*Xlig	*	*	*
=41-	=41-	=41-	=41-	=41-	=41-
0AA	.	1E	.	2c/	.
.	.	.	.	1d	.
.	.	1E	.	.	.
.	.	.	.	2c/	.
=42-	=42-	=42-	=42-	=42-	=42-
*	*	*custos:D	*	*	*
2A\	.	[y0D;>l	-bis	[y0d;<l	-bis
2F/	.	.	.	.	.
*custos:D	*	*	*	*	*
[y1F;<l	-bis	.	.	.	.
=43-	=43-	=43-	=43-	=43-	=43-
0F]yy	.	0D]yy	.	0d]yy	.
!LO:LB:g=original	!	!LO:LB:g=original	!	!	!
=44-	=44-	=44-	=44-	=44-	=44-
*	*	*clefC5	*	*	*
*	*	*lig	*	*	*
1D	A-	1D	A-	0d	A-
*lig	*	*	*	*	*
1D	.	1A	.	.	.
*	*	*Xlig	*	*	*
=45-	=45-	=45-	=45-	=45-	=45-
1GG	.	1B	.	1d	.
*Xlig	*	*	*	*	*
*lig	*	*lig	*	*lig	*
1D	-gnus	1A	gnus	1d	-gnus
=46-	=46-	=46-	=46-	=46-	=46-
1E	.	1G	.	1g	.
*Xlig	*	*Xlig	*	*Xlig	*
1AA	de-	1A	de-	1e	de-
=47-	=47-	=47-	=47-	=47-	=47-
*	*	*	*	*custos:f	*
1BB	-i	1D	-i	2d/	-i
!	!	!	!	!LO:PB:g=original	!
.	.	.	.	2f\	.
1C	qvi	1E	qvi	2e/	qvi
.	.	.	.	1c\	.
=48-	=48-	=48-	=48-	=48-	=48-
*lig	*	*lig	*	*	*
1D	.	1F	.	.	.
.	.	.	.	2f\	.
1C	.	1G	.	2e\	.
.	.	.	.	1f\	tol-
*Xlig	*	*Xlig	*	*	*
=49-	=49-	=49-	=49-	=49-	=49-
*lig	*	*	*	*	*
1C	to-	1G	tol-	.	.
.	.	.	.	2e\	.
1D	.	1F	.	2f\	.
.	.	.	.	2d/	.
*Xlig	*	*	*	*	*
=50-	=50-	=50-	=50-	=50-	=50-
1C	.	1E	.	2g\	.
.	.	.	.	2c/	.
1BB	.	1D	.	1d	.
=51-	=51-	=51-	=51-	=51-	=51-
*	*	*lig	*	*	*
0AA	.	1E	.	1c	.
.	.	1F	.	2c/	.
*	*	*	*	*custos:c	*
.	.	.	.	1d\	.
*	*	*Xlig	*	*	*
=52-	=52-	=52-	=52-	=52-	=52-
1AA	.	1E	.	.	.
!	!	!	!	!LO:LB:g=original	!
.	.	.	.	2c/	.
*	*	*	*	*lig	*
1BB	.	1D	.	1d	-lis
=53-	=53-	=53-	=53-	=53-	=53-
*custos:C	*	*	*	*	*
1C	.	1C	lis	1G	.
*	*	*	*	*Xlig	*
!LO:LB:g=original	!	!	!	!	!
*	*	*	*	*lig	*
*	*	*custos:F	*	*	*
2C/	lis	1E	Pec-	1G	Pec-
2BB/	.	.	.	.	.
!	!	!LO:LB:g=original	!	!	!
=54-	=54-	=54-	=54-	=54-	=54-
*	*	*lig	*	*	*
1AA	pec-	1F	.	1c	.
*lig	*	*	*	*Xlig	*
1GG	.	1G	.	2B/	.
.	.	.	.	2c/	-ca-
*	*	*Xlig	*	*	*
=55-	=55-	=55-	=55-	=55-	=55-
1G	.	1G	-ca-	2d/	.
.	.	.	.	2e/	.
*Xlig	*	*	*	*	*
1F	-ca-	1A	.	1f	.
=56-	=56-	=56-	=56-	=56-	=56-
1F	.	1D	-ta	1f	-ta
*lig	*	*lig	*	*	*
1G	-ta	1E	.	2e/	.
.	.	.	.	2d/	.
=57-	=57-	=57-	=57-	=57-	=57-
1A	.	1F	.	2c/	.
.	.	.	.	2A/	.
*Xlig	*	*Xlig	*	*	*
*lig	*	*	*	*	*
1G	.	1E	.	2B/	.
*	*	*	*	*custos:d	*
.	.	.	.	2c/	.
!	!	!	!	!LO:LB:g=original	!
=58-	=58-	=58-	=58-	=58-	=58-
1F	.	1D	.	1d	.
*Xlig	*	*	*	*	*
1E	.	1C	mu(n)-	2G/	mun-
.	.	.	.	1g\	.
=59-	=59-	=59-	=59-	=59-	=59-
1D	mu(n)-	1D	.	.	.
.	.	.	.	2f\	.
*	*	*lig	*	*	*
2C/	.	1E	.	1g	.
2BB/	.	.	.	.	.
=60-	=60-	=60-	=60-	=60-	=60-
*	*	*	*	*lig	*
0AA	-di	1F	.	1c	-di
*	*	*Xlig	*	*	*
*	*	*lig	*	*	*
.	.	1E	-di	1A	.
*	*	*	*	*Xlig	*
=61-	=61-	=61-	=61-	=61-	=61-
0BB	mi-	1D	.	2G/	mi-
.	.	.	.	2F/	.
*	*	*Xlig	*	*	*
.	.	1D	mi-	2G/	.
.	.	.	.	1g\	.
=62-	=62-	=62-	=62-	=62-	=62-
*	*	*lig	*	*	*
1C	-se	1E	-se-	.	.
.	.	.	.	2e\	se-
*custos:E	*	*	*	*	*
1D	.	1F	.	1d	.
*	*	*Xlig	*	*	*
!LO:LB:g=original	!	!	!	!	!
=63-	=63-	=63-	=63-	=63-	=63-
*	*	*lig	*	*	*
1E	.	1G	.	1g	re
2D/	.	1A	.	2f\	.
1C/	.	.	.	2e/	.
*	*	*Xlig	*	*	*
=64-	=64-	=64-	=64-	=64-	=64-
*	*	*	*	*custos:d	*
.	.	1G	-re-	2c/	.
!	!	!	!	!LO:LB:g=original	!
2BB/	.	.	.	2d/	.
*	*	*custos:E	*	*	*
2AA/	.	1F	-re	2f\	.
2BB/	.	.	.	2d/	.
!	!	!LO:PB:g=original	!	!	!
=65-	=65-	=65-	=65-	=65-	=65-
1C	.	1E	.	1g	no-
*	*	*lig	*	*	*
1AA	.	1F	.	1a	.
=66-	=66-	=66-	=66-	=66-	=66-
1GG	.	1G	.	1d	.
*	*	*Xlig	*	*	*
2AA/	.	1F	.	1a	.
2BB/	.	.	.	.	.
=67-	=67-	=67-	=67-	=67-	=67-
*	*	*lig	*	*	*
1C	.	1E	.	2g\	.
.	.	.	.	1g	.
1AA	.	1C	.	.	.
.	.	.	.	2f\	.
*	*	*Xlig	*	*	*
=68-	=68-	=68-	=68-	=68-	=68-
1GG	.	1D	.	1g	.
2C/	.	1E	.	1g	.
2BB/	.	.	.	.	.
=69-	=69-	=69-	=69-	=69-	=69-
*custos:GG	*	*	*	*	*
2AA/	.	2F/	.	2c/	.
!LO:LB:g=original	!	!	!	!	!
2GG/	.	2G/	.	2B/	.
2AA/	.	2E/	.	2A/	.
2BB/	.	2D/	.	1d\	.
=70-	=70-	=70-	=70-	=70-	=70-
1AA	.	1E	.	.	.
.	.	.	.	2c/	.
*	*	*custos:D	*	*custos:d	*
!	!	!LO:TX:a:t=P:problem=w źródle po ostatnie londze długi znak custos [najprawdopodobniej oznacza długi dźwięk]	!	!	!
!	!	!	!	!LO:TX:a:t=P:problem=w źródle po ostatnie londze długi znak custos [najprawdopodobniej oznacza długi dźwięk]	!
2A\	.	[y1D;>l	.	[y1d;<l	-bis
2F\	.	.	.	.	.
=71-	=71-	=71-	=71-	=71-	=71-
0F;<l	.	0D]yy	.	0d]yy	.
==	==	==	==	==	==
*-	*-	*-	*-	*-	*-
!!title: @{OTL};
!!!RDF**kern: > = above
!!!RDF**kern: < = below
!!!RDF**kern: | = vertical stroke
!!!RDF**kern: N = linked
!!!RDF**kern: i = editorial accidental
!!!RDF**kern: l = terminal long
!!!ENC: Filip Voros
!!!END: 2021-12-31
!!!EED: Wojciech Jakubiak-Danek
!!!EST: 2022-01-03
!!!URL-scan: http://repozytorium.nifc.pl/skany/pl-kk-nut--i-3
!!!ONB-nifc: UWAGA: Discantus (s. 66r-67r, skan 0068-0069), Tenor (s. 46r-v, skan 0218-0219), Bassus (s. 62r-v, skan 0365-0366)
